X: 39
%
U:~=!turn!
T: The Black Shepherdess
C:Pipe tune
O:Scotland
B:Keith Norman MacDonald : "The Skye collection of the best reels & strathspeys extant" : 1887
Z:Ralph Palmer
R:Reel
M:C
L:1/8
K:A dorian
AA ag f2 ef | ef g2 dBBd | a>ba>g f2 ef | gedB AA A2 ::
g/ | f2 A2 f>e de | g2 dB GB d>g | f2 A>f e2 de | gedB AA A>g :|


